assets/Sun/Flat/sun_flat.svg

<svg width="32" height="32" viewBox="0 0 32 32" fill="none" xmlns="http://www.w3.org/2000/svg">
<path d="M13.6376 3.20168C14.811 1.61132 17.1889 1.61132 18.3624 3.20168V3.20168C19.1081 4.21232 20.4141 4.63667 21.6114 4.25735V4.25735C23.4955 3.66046 25.4193 5.05815 25.4338 7.03451V7.03451C25.4431 8.29045 26.2502 9.4014 27.4419 9.79831V9.79831C29.317 10.4229 30.0518 12.6844 28.9019 14.2918V14.2918C28.1712 15.3134 28.1712 16.6866 28.9019 17.7081V17.7081C30.0518 19.3155 29.317 21.577 27.4419 22.2016V22.2016C26.2502 22.5985 25.4431 23.7095 25.4338 24.9654V24.9654C25.4193 26.9418 23.4955 28.3395 21.6114 27.7426V27.7426C20.4141 27.3633 19.1081 27.7876 18.3624 28.7982V28.7982C17.1889 30.3886 14.811 30.3886 13.6376 28.7982V28.7982C12.8919 27.7876 11.5859 27.3633 10.3886 27.7426V27.7426C8.50444 28.3395 6.58068 26.9418 6.56613 24.9654V24.9654C6.55689 23.7095 5.74973 22.5985 4.55812 22.2016V22.2016C2.68299 21.577 1.94818 19.3155 3.09808 17.7081V17.7081C3.82882 16.6866 3.82882 15.3134 3.09808 14.2918V14.2918C1.94818 12.6844 2.68299 10.4229 4.55812 9.79831V9.79831C5.74973 9.4014 6.55689 8.29045 6.56613 7.03451V7.03451C6.58068 5.05815 8.50444 3.66046 10.3886 4.25735V4.25735C11.5859 4.63667 12.8919 4.21232 13.6376 3.20168V3.20168Z" fill="#FF822D"/>
<path d="M25.0623 21.2321C22.1727 26.237 15.7729 27.9518 10.768 25.0622C5.76307 22.1726 4.04825 15.7728 6.93785 10.7679C9.82744 5.76298 16.2272 4.04817 21.2321 6.93776C26.2371 9.82736 27.9519 16.2271 25.0623 21.2321Z" fill="#FCD53F"/>
</svg>

<svg xmlns="http://www.w3.org/2000/svg" width="32" height="32" fill="none"><path fill="#FF822D" d="M13.638 3.202a2.936 2.936 0 0 1 4.724 0 2.936 2.936 0 0 0 3.25 1.055 2.936 2.936 0 0 1 3.822 2.778 2.936 2.936 0 0 0 2.008 2.763 2.936 2.936 0 0 1 1.46 4.494 2.936 2.936 0 0 0 0 3.416 2.936 2.936 0 0 1-1.46 4.494 2.936 2.936 0 0 0-2.008 2.763 2.936 2.936 0 0 1-3.823 2.778 2.936 2.936 0 0 0-3.249 1.055 2.936 2.936 0 0 1-4.724 0 2.936 2.936 0 0 0-3.25-1.055 2.936 2.936 0 0 1-3.822-2.778 2.936 2.936 0 0 0-2.008-2.763 2.936 2.936 0 0 1-1.46-4.494 2.936 2.936 0 0 0 0-3.416 2.936 2.936 0 0 1 1.46-4.494 2.936 2.936 0 0 0 2.008-2.763 2.936 2.936 0 0 1 3.823-2.778 2.936 2.936 0 0 0 3.249-1.055Z"/><path fill="#FCD53F" d="M25.062 21.232c-2.89 5.005-9.29 6.72-14.294 3.83-5.005-2.89-6.72-9.29-3.83-14.294 2.89-5.005 9.29-6.72 14.294-3.83 5.005 2.89 6.72 9.29 3.83 14.294Z"/></svg>
